assets/icons/librescoot-aux-battery-level-50.svg

<svg xmlns="http://www.w3.org/2000/svg" width="144" height="144" fill="none" viewBox="0 0 144 144"><g clip-path="url(#a)"><mask id="b" width="144" height="144" x="0" y="0" maskUnits="userSpaceOnUse" style="mask-type:alpha"><path fill="#d9d9d9" d="M0 0h144v144H0z"/></mask><g mask="url(#b)"><path stroke="#fff" stroke-width="8" d="M39 56h8c1.6569 0 3 1.3431 3 3v5h44v-5c0-1.6569 1.3431-3 3-3h8c1.657 0 3 1.3431 3 3v5h8c3.314 0 6 2.6863 6 6v51c0 3.314-2.686 6-6 6H28c-3.3137 0-6-2.686-6-6V70c0-3.3137 2.6863-6 6-6h8v-5c0-1.6569 1.3431-3 3-3Z"/></g><path fill="#fff" stroke="#fff" stroke-width="8" d="M44.25 76v40H33V76zm22.25 0v40H55.25V76z"/><path fill="#fff" d="M38.8255 40h-5.9319l9.0384-26.1818h7.1335L58.0911 40h-5.9318L45.601 19.8011h-.2045zm-.3708-10.2912h14.0114v4.321H38.4547zm38.9595-15.8906h5.5356V30.821q0 2.8637-1.3679 5.0114-1.3552 2.1477-3.7969 3.3494-2.4418 1.1889-5.6889 1.1889-3.26 0-5.7017-1.1889-2.4418-1.2017-3.7969-3.3494t-1.3551-5.0114V13.8182h5.5355V30.348q0 1.4957.652 2.6591.6647 1.1634 1.8664 1.8281t2.7998.6648q1.6107 0 2.7997-.6648 1.2017-.6647 1.8537-1.8281.6647-1.1634.6647-2.6591zm15.2802 0 5.2799 8.9233h.2045l5.3052-8.9233h6.252l-7.99 13.0909L109.915 40h-6.367l-5.3692-8.9361h-.2045L92.6049 40H86.264l8.1946-13.0909-8.0412-13.0909z"/></g><defs><clipPath id="a"><path fill="#fff" d="M0 0h144v144H0z"/></clipPath></defs></svg>

<svg width="144" height="144" viewBox="0 0 144 144" fill="none" xmlns="http://www.w3.org/2000/svg">
<g clip-path="url(#clip0_503_534)">
<mask id="mask0_503_534" style="mask-type:alpha" maskUnits="userSpaceOnUse" x="0" y="0" width="144" height="144">
<rect width="144" height="144" fill="#D9D9D9"/>
</mask>
<g mask="url(#mask0_503_534)">
<path d="M39 56H47C48.6569 56 50 57.3431 50 59V64H94V59C94 57.3431 95.3431 56 97 56H105C106.657 56 108 57.3431 108 59V64H116C119.314 64 122 66.6863 122 70V121C122 124.314 119.314 127 116 127H28C24.6863 127 22 124.314 22 121V70C22 66.6863 24.6863 64 28 64H36V59C36 57.3431 37.3431 56 39 56Z" stroke="white" stroke-width="8"/>
</g>
<path d="M44.25 76V116H33V76H44.25Z" fill="white" stroke="white" stroke-width="8"/>
<path d="M66.5 76V116H55.25V76H66.5Z" fill="white" stroke="white" stroke-width="8"/>
<path d="M38.8255 40H32.8936L41.932 13.8182H49.0655L58.0911 40H52.1593L45.601 19.8011H45.3965L38.8255 40ZM38.4547 29.7088H52.4661V34.0298H38.4547V29.7088ZM77.4142 13.8182H82.9498V30.821C82.9498 32.7301 82.4938 34.4006 81.5819 35.8324C80.6784 37.2642 79.4128 38.3807 77.785 39.1818C76.1571 39.9744 74.2608 40.3707 72.0961 40.3707C69.9228 40.3707 68.0222 39.9744 66.3944 39.1818C64.7665 38.3807 63.5009 37.2642 62.5975 35.8324C61.6941 34.4006 61.2424 32.7301 61.2424 30.821V13.8182H66.7779V30.348C66.7779 31.3452 66.9952 32.2315 67.4299 33.0071C67.873 33.7827 68.4952 34.392 69.2963 34.8352C70.0975 35.2784 71.0307 35.5 72.0961 35.5C73.1699 35.5 74.1032 35.2784 74.8958 34.8352C75.6969 34.392 76.3148 33.7827 76.7495 33.0071C77.1926 32.2315 77.4142 31.3452 77.4142 30.348V13.8182ZM92.6944 13.8182L97.9743 22.7415H98.1788L103.484 13.8182H109.736L101.746 26.9091L109.915 40H103.548L98.1788 31.0639H97.9743L92.6049 40H86.264L94.4586 26.9091L86.4174 13.8182H92.6944Z" fill="white"/>
</g>
<defs>
<clipPath id="clip0_503_534">
<rect width="144" height="144" fill="white"/>
</clipPath>
</defs>
</svg>
